X:214
T: Billy's Khosidl
O:klezmer
C: William Wise 1996
M: 2/4
L: 1/8
K: Ephr
|::: E/ \
| "E"(3^GAB BB | "Am"(3cBA "E"B^G | (3EF^G GG | "Dm"(3A^GF "E"E z/ :::|
|: E/ \
| "Am"c/c/c/c/ c/B/A/B/ | cAA z/E/ | c/c/c/c/ c/B/A/B/ | "E"A^GG z/E/ |
| B/B/B/B/ B/A/^G/A/ | ^GFE z/E/ | e/e/e/e/ e/d/c/B/ | "Am"cAA z/ :|
|: E/ \
| "Am"ze2 c | ec BA | ze2 c | cB "E"B2 \
| zd2 B | dc BA | ^GA Bc |1"Am"BA A z/ :|2 "Am"BA Az/ |]





